X:1
T:Sentinel upon the Heights
T:William Howard Doane
T:Sentinel upon the Heights
T:Public Domain
T:Public Domain
C:William Howard Doane
Z:Public Domain
%%score ( 1 2 ) ( 3 4 )
L:1/8
M:3/4
K:Bb
V:1 treble 
V:2 treble 
V:3 bass 
V:4 bass 
V:1
"^Solo" (3(FB)c | d3 d e>A | B4 (3(FB)d | f3 e d>c | B4 (3(FB)c | d2 d2 (3(de)=e | f4 (3(dB)F | %7
w: 1.~On * the|heights why stand- est|thou, Sen- * ti-|nel, with sleep- less|brow? In * the|ser- vice of * our|Lord, I * am|
w: 2.~On * the|heights what se- est|thou, Sen- * ti-|nel, with sleep- less|brow? Sin * and|crime with heed- * less|bound, Send * their|
w: 3.~On * the|heights what hear- est|thou, Sen- * ti-|nel, with sleep- less|brow? Still * the|foe in phal- * anx|broad, Arms * him-|
 B2 d2 (3(cF)c | B4"^Duet" [CA]>[DB] | [Ec]2 [Ec]2 [DB]>[Ec] | ([Fd][DB]) [DF]2 [DB]>[Ec] | %11
w: keep- ing watch * and|word; Sleep- ing|ne- ver, guard- ing|ev- * er All the|
w: forc- es all * a-|round; Ne- ver|sleep- ing, ev- er|keep- * ing, Faith- ful|
w: self a- gainst * the|Lord; Ar- mor|glanc- ing, swift ad-|vanc- * ing, When we|
 [Fd][DB] [Ge]2 [Fd]2 | ([Fd]2 [Ec]2) [DB]>[Ec] | [Fd]3 [DB] [Ec][Fd] | (fe) [=GB]2 [GB]>[_Gc] | %15
w: posts of dan- ger|near; * Lest our|ci- ty should be|cap- * tured, Lest the|
w: guard tho’ foes ap-|pall, * Christ Him-|self our arms will|strength- * en, Might- y|
w: thought sal- va- tion|near; * Wak- en|sol- diers! march to|bat- * tle, Christ the|
 [Fd][DF] [Fd]2 [Ec]2 | [DB]4 ||"^Refrain" [DB]>[Ec] | [Fd]3 [Ge] [Fd][FB] | %19
w: e- my ap- pear.||||
w: en- com- pass all.|Tho’|the night|be long and wear-|
w: is Cap- tain here.||||
 ([Fd]>[Ec]) [DB]2 [FA][FB] | [Fc]3 [F=B] [Fc][Fd] | [Fe][Fd] [Fc]2 [DB]>[Ec] | %22
w: |||
w: y, * Cheer thee, sol-|dier, yond- er dist-|ant ray Shall dis- pel|
w: |||
 [Fd]3 [DB] [Ec]>[Fd] | (f>e) [=GB]2 [GB]>[_Gc] | [Fd][DF] [Fd]2 [Ec]2 | [DB]4 |] %26
w: ||||
w: these war clouds drear-|y; * Thou shalt soon|hold the day! *||
w: ||||
V:2
 x2 | x6 | x6 | x6 | x6 | x6 | x6 | x6 | x6 | x6 | x6 | x6 | x6 | x6 | _G2 x4 | x6 | x4 || x2 | %18
w: ||||||||||||||en-||||
w: ||||||||||||||to||||
w: ||||||||||||||Lord||||
 x6 | x6 | x6 | x6 | x6 | _G2 x4 | x6 | x4 |] %26
w: ||||||||
w: |||||be-|||
w: ||||||||
V:3
 z2 | z6 | z6 | z6 | z6 | z6 | z6 | z6 | z6 | z6 | z6 | z6 | z6 | z6 | z6 | z6 | z4 || %17
 [B,,B,]>[B,,B,] | [B,,B,]3 [B,,B,] [B,,B,][D,B,] | [F,A,]2 [B,,B,]2 [F,C][F,D] | %20
 [F,E]3 [F,D] [F,E][F,=B,] | [F,E][F,B,] [F,A,]2 [B,,B,]>[B,,B,] | %22
 [B,,B,]3 [B,,B,] [B,,B,]>[B,,B,] | [E,B,]2 [E,E]2 [E,B,]>[E,B,] | [F,B,][F,B,] [F,B,]2 (A,F,) | %25
 [B,,F,]4 |] %26
V:4
 x2 | x6 | x6 | x6 | x6 | x6 | x6 | x6 | x6 | x6 | x6 | x6 | x6 | x6 | x6 | x6 | x4 || x2 | x6 | %19
 x6 | x6 | x6 | x6 | x6 | x4 F,2 | x4 |] %26

